public/avatar/hat/250.svg

<svg xmlns:xlink="http://www.w3.org/1999/xlink" height="92.9" width="100.7" xmlns="http://www.w3.org/2000/svg"><g transform="translate(38.65 49.75)"><use height="18.85" transform="translate(2.25 -6.95)" width="19.65" xlink:href="#a"/><use height="18.85" transform="matrix(-1 0 0 1 -2.35 -7.05)" width="19.65" xlink:href="#a"/></g><defs><use height="18.85" width="19.65" xlink:href="#b" id="a"/><g id="b" fill-rule="evenodd"><path d="M8.85-.45Q11.1 2.6 8.2 3L6.8 7.1q-2.15 3.7-5.7 1.55-3.05-2.1-2.85-4.9l-.3.8Q-6.25-.1-9.8-1.6q.1-1.35.85-2.95 1.5-3.2 4.65-4.3l2.1-.55q2.35.05 3.8 2.9l1.1 1.85q-.05-2-.7-3-.1-.6.15-1.1.45-.95 2.05-.2L6.7-7Q9.1-4.3 8.85-.45" fill="#271c12" transform="translate(9.8 9.4)"/><path d="m3.55-1.55.4-.1q2.6.05 3.9 1.25 1.9 2.1-.3 2.3-.4-.75-1.8-1.2L4.4.35l-.85-1.9" fill="#ffe642" transform="translate(9.8 9.4)"/><path d="m7.9-.25-4-1-.75-.6q-.45 1.5 0-.15L2.9-7.4q-.3-.7-.05-.95l.3-.1q4.6 1.6 4.7 8.05l.05.15" fill="#ffe642" transform="translate(9.8 9.4)"/><path d="M3.5-2.45q.9 1.6.9 2.8l1.35.3q1.45.45 1.75 1.1-.75 6.95-4.85 6.2-3.9-.6-4.15-5.4l-.7.75Q-4.5.5-8.95-2q.5-1.65 1.65-3.25 2.3-3.2 5.45-3l.8.35Q-.1-7.4.5-6.55l2.1 2.8.9 1.3" fill="#dfd2be" transform="translate(9.8 9.4)"/><path d="m-.35-3.3 1.5.65q1.65.65 2 6.3 0 1.75.9 2.1Q5.2 5.65 6.7 1.4l.1-.45.7.8q-.75 5.6-2.8 6.05-2.05 1.3-4.3-1-1.3-1.35-1.75-2.95l-.15-1.3-.6.95L-5.35.4l1.85-2.8q1.4-1.3 3.15-.9" fill="#9f8971" transform="translate(9.8 9.4)"/><path d="m-1.45 2.3-.95.95L-4.75 1q2.45-3.55 4.7-2.45Q1.1-.85 1.7.4l.15.1q-.3 5.05 1.25 5.8Q1.3 7.35.55 2.65q-.85-1.05-2-.35" fill="#70583e" transform="translate(9.8 9.4)"/><path d="m1.1 2.4-1.25-.75-1.75 1.4L.15.45 1.1 2.4" fill="#483929" transform="translate(9.8 9.4)"/><path d="M.2-2.95q-2.45-1-5.6 3.2.35-1.05 1.2-2.1 1.65-2.1 4.1-1.9.55.35 1.05.65 1.1.9 1.45 2.2.55 2.15-.35-.25-.6-1.3-1.85-1.8" fill="#483929" transform="translate(9.8 9.4)"/><path d="m5.2 4.4-.65 1q-1.4 2.2-1.9-4.3.65 3.65 1.7 3.75.5.05.85-.45m1.7-3.15-1 2.25q.7-2.25.25-2.8l.75.55" fill="#483929" transform="translate(9.8 9.4)"/><path d="m3.95-1.65 2.2.2Q8.3.85 6.8.75L4.4.35l-.45-2" fill="#b88a2a" transform="translate(9.8 9.4)"/><path d="m4.7-1.75.3 1q.45 1 .9 1.1H4.4q-.15-1.85-.45-2l.75-.1" fill="#754017" transform="translate(9.8 9.4)"/><path d="M4-1.65q.7 1.35.4 2l-.2 1.2Q4.3-.9 3.25-2.9L4-1.65" fill="#483929" transform="translate(9.8 9.4)"/><path d="m7.55 1.9-.1.3q-.2-1.05-1.7-1.45l-1.5-.2.15-.2Q7.55.25 7.55 1.9" fill="#483929" transform="translate(9.8 9.4)"/><path d="m5.25-1.7-1.4.05v-.4q3.1-.35 3.95 1.5l.5.65Q6.95-1.45 5.25-1.7" fill="#71611e" transform="translate(9.8 9.4)"/><path d="m5.9-1.9-2.05-.15-.6-.85q.25-.4 0-3.85L3-8.15l.15.15Q6.1-6.1 5.9-1.9" fill="#b88a2a" transform="translate(9.8 9.4)"/><path d="m6.15-1.65-2.3-.4-.3-.55q.45.15 2-1.3.75.25.6 2.25" fill="#754017" transform="translate(9.8 9.4)"/><path d="m5.25-5 .65 1.7q-.4 1.15-.85.1L5-3.4 5.25-5" fill="#754017" transform="translate(9.8 9.4)"/><path d="m4.15-7.1 1.2 1.7q1.2 2.05 1.2 3.85l-.65-.2q.25-1.9-1.75-5.35" fill="#71611e" transform="translate(9.8 9.4)"/><path d="M4.2-6.9q-.95 2.45-.75.7l-.5-1.9.2.1Q3.7-8 4.2-6.9" fill="#fff" transform="translate(9.8 9.4)"/><path d="m3.75-8.1 1.15.8q1.15.95 1.35 1.8l-.8-.25-.2-.15Q4.2-7.95 2.95-8.3l.8.2M8.05 0q1.1 1.2-.25 1.8L8.05 0" fill="#fff" transform="translate(9.8 9.4)"/><path d="m-5.6-.6-2.6-1.55Q-3-5.55-.15-4.8q1.45.35 1.8 1.4-2.4-2.35-5.05 0-1.35 1.15-2.2 2.8" fill="#beab91" transform="translate(9.8 9.4)"/><path d="M-8.35-1.95q.95-2.2 2.5-3.95Q-2.8-9.45.05-7.2l-3.9 1.4q-3.8 2-3.1 4.8l-1.4-.95" fill="#f1ede9" transform="translate(9.8 9.4)"/><path d="M-4.9-1.7q.1.25-.85.5-.5-1.2-1.05-1.65L-8.2-4l.85-.5 1.5 1.25q.65.65.95 1.55m1.45-1.6q.05.25-.85.5-.2-2-1.6-3.4-.1-.15.9-.5 1.35 1.4 1.55 3.4m.85-4.3.85-.5q1.35 1.9.8 3.8-.05.25-.85.4.5-1.75-.8-3.7M.9-4.9q.9-.6.85-.4l.2 1.25q-.1.45-.8.85l-.5.1.35-.4-.05-.75L.9-4.9m1.65 2.4L3.4-3q.05.9-.5 1.4-.25.25-.6.35-.4.1-.1-.2.4-.4.35-1.05m1.4 2.2.25.1L3.7.95q-.5.45-1.05.5-.25.05.05-.25.3-.25.55-.25l-.2-.1L3.4.1l.55-.4m.1 2.45q.8-.65.9-.5.65 1.2.3 2.1l-.45.4h-.4q.3-.85-.35-2" fill="#9b8a81" transform="translate(9.8 9.4)"/></g></defs></svg>

<?xml version="1.0" encoding="UTF-8" standalone="no"?>
<svg xmlns:xlink="http://www.w3.org/1999/xlink" height="92.9px" width="100.7px" xmlns="http://www.w3.org/2000/svg">
  <g transform="matrix(1.0, 0.0, 0.0, 1.0, 38.65, 49.75)">
    <use height="18.85" transform="matrix(1.0, 0.0, 0.0, 1.0, 2.25, -6.95)" width="19.65" xlink:href="#sprite0"/>
    <use height="18.85" transform="matrix(-1.0, 0.0, 0.0, 1.0, -2.35, -7.05)" width="19.65" xlink:href="#sprite0"/>
  </g>
  <defs>
    <g id="sprite0" transform="matrix(1.0, 0.0, 0.0, 1.0, 9.8, 9.4)">
      <use height="18.85" transform="matrix(1.0, 0.0, 0.0, 1.0, -9.8, -9.4)" width="19.65" xlink:href="#shape0"/>
    </g>
    <g id="shape0" transform="matrix(1.0, 0.0, 0.0, 1.0, 9.8, 9.4)">
      <path d="M8.85 -0.45 Q11.1 2.6 8.2 3.0 L6.8 7.1 Q4.65 10.8 1.1 8.65 -1.95 6.55 -1.75 3.75 L-2.05 4.55 Q-6.25 -0.1 -9.8 -1.6 -9.7 -2.95 -8.95 -4.55 -7.45 -7.75 -4.3 -8.85 L-2.2 -9.4 Q0.15 -9.35 1.6 -6.5 L2.7 -4.65 Q2.65 -6.65 2.0 -7.65 1.9 -8.25 2.15 -8.75 2.6 -9.7 4.2 -8.95 L6.7 -7.0 Q9.1 -4.3 8.85 -0.45" fill="#271c12" fill-rule="evenodd" stroke="none"/>
      <path d="M3.55 -1.55 L3.95 -1.65 Q6.55 -1.6 7.85 -0.4 9.75 1.7 7.55 1.9 7.15 1.15 5.75 0.7 L4.4 0.35 3.55 -1.55" fill="#ffe642" fill-rule="evenodd" stroke="none"/>
      <path d="M7.9 -0.25 L3.9 -1.25 3.15 -1.85 Q2.7 -0.35 3.15 -2.0 L2.9 -7.4 Q2.6 -8.1 2.85 -8.35 L3.15 -8.45 Q7.75 -6.85 7.85 -0.4 L7.9 -0.25" fill="#ffe642" fill-rule="evenodd" stroke="none"/>
      <path d="M3.5 -2.45 Q4.4 -0.85 4.4 0.35 L5.75 0.65 Q7.2 1.1 7.5 1.75 6.75 8.7 2.65 7.95 -1.25 7.35 -1.5 2.55 L-2.2 3.3 Q-4.5 0.5 -8.95 -2.0 -8.45 -3.65 -7.3 -5.25 -5.0 -8.45 -1.85 -8.25 L-1.05 -7.9 Q-0.1 -7.4 0.5 -6.55 L2.6 -3.75 3.5 -2.45" fill="#dfd2be" fill-rule="evenodd" stroke="none"/>
      <path d="M-0.35 -3.3 L1.15 -2.65 Q2.8 -2.0 3.15 3.65 3.15 5.4 4.05 5.75 5.2 5.65 6.7 1.4 L6.8 0.95 7.5 1.75 Q6.75 7.35 4.7 7.8 2.65 9.1 0.4 6.8 -0.9 5.45 -1.35 3.85 L-1.5 2.55 -2.1 3.5 -5.35 0.4 -3.5 -2.4 Q-2.1 -3.7 -0.35 -3.3" fill="#9f8971" fill-rule="evenodd" stroke="none"/>
      <path d="M-1.45 2.3 L-2.4 3.25 -4.75 1.0 Q-2.3 -2.55 -0.05 -1.45 1.1 -0.85 1.7 0.4 L1.85 0.5 Q1.55 5.55 3.1 6.3 1.3 7.35 0.55 2.65 -0.3 1.6 -1.45 2.3" fill="#70583e" fill-rule="evenodd" stroke="none"/>
      <path d="M1.1 2.4 L-0.15 1.65 -1.9 3.05 0.15 0.45 1.1 2.4" fill="#483929" fill-rule="evenodd" stroke="none"/>
      <path d="M0.2 -2.95 Q-2.25 -3.95 -5.4 0.25 -5.05 -0.8 -4.2 -1.85 -2.55 -3.95 -0.1 -3.75 0.45 -3.4 0.95 -3.1 2.05 -2.2 2.4 -0.9 2.95 1.25 2.05 -1.15 1.45 -2.45 0.2 -2.95" fill="#483929" fill-rule="evenodd" stroke="none"/>
      <path d="M5.2 4.4 L4.55 5.4 Q3.15 7.6 2.65 1.1 3.3 4.75 4.35 4.85 4.85 4.9 5.2 4.4" fill="#483929" fill-rule="evenodd" stroke="none"/>
      <path d="M6.9 1.25 L5.9 3.5 Q6.6 1.25 6.15 0.7 L6.9 1.25" fill="#483929" fill-rule="evenodd" stroke="none"/>
      <path d="M3.95 -1.65 L6.15 -1.45 Q8.3 0.85 6.8 0.75 L4.4 0.35 3.95 -1.65" fill="#b88a2a" fill-rule="evenodd" stroke="none"/>
      <path d="M4.7 -1.75 L5.0 -0.75 Q5.45 0.25 5.9 0.35 L4.4 0.35 Q4.25 -1.5 3.95 -1.65 L4.7 -1.75" fill="#754017" fill-rule="evenodd" stroke="none"/>
      <path d="M4.0 -1.65 Q4.7 -0.3 4.4 0.35 L4.2 1.55 Q4.3 -0.9 3.25 -2.9 L4.0 -1.65" fill="#483929" fill-rule="evenodd" stroke="none"/>
      <path d="M7.55 1.9 L7.45 2.2 Q7.25 1.15 5.75 0.75 L4.25 0.55 4.4 0.35 Q7.55 0.25 7.55 1.9" fill="#483929" fill-rule="evenodd" stroke="none"/>
      <path d="M5.25 -1.7 L3.85 -1.65 3.85 -2.05 Q6.95 -2.4 7.8 -0.55 L8.3 0.1 Q6.95 -1.45 5.25 -1.7" fill="#71611e" fill-rule="evenodd" stroke="none"/>
      <path d="M5.9 -1.9 L3.85 -2.05 3.25 -2.9 Q3.5 -3.3 3.25 -6.75 L3.0 -8.15 3.15 -8.0 Q6.1 -6.1 5.9 -1.9" fill="#b88a2a" fill-rule="evenodd" stroke="none"/>
      <path d="M6.15 -1.65 L3.85 -2.05 3.55 -2.6 Q4.0 -2.45 5.55 -3.9 6.3 -3.65 6.15 -1.65" fill="#754017" fill-rule="evenodd" stroke="none"/>
      <path d="M5.25 -5.0 L5.9 -3.3 Q5.5 -2.15 5.05 -3.2 L5.0 -3.4 5.25 -5.0" fill="#754017" fill-rule="evenodd" stroke="none"/>
      <path d="M4.15 -7.1 L5.35 -5.4 Q6.55 -3.35 6.55 -1.55 L5.9 -1.75 Q6.15 -3.65 4.15 -7.1" fill="#71611e" fill-rule="evenodd" stroke="none"/>
      <path d="M4.2 -6.9 Q3.25 -4.45 3.45 -6.2 L2.95 -8.1 3.15 -8.0 Q3.7 -8.0 4.2 -6.9" fill="#ffffff" fill-rule="evenodd" stroke="none"/>
      <path d="M3.75 -8.1 L4.9 -7.3 Q6.05 -6.35 6.25 -5.5 L5.45 -5.75 5.25 -5.9 Q4.2 -7.95 2.95 -8.3 L3.75 -8.1" fill="#ffffff" fill-rule="evenodd" stroke="none"/>
      <path d="M8.05 0.0 Q9.15 1.2 7.8 1.8 L8.05 0.0" fill="#ffffff" fill-rule="evenodd" stroke="none"/>
      <path d="M-5.6 -0.6 L-8.2 -2.15 Q-3.0 -5.55 -0.15 -4.8 1.3 -4.45 1.65 -3.4 -0.75 -5.75 -3.4 -3.4 -4.75 -2.25 -5.6 -0.6" fill="#beab91" fill-rule="evenodd" stroke="none"/>
      <path d="M-8.35 -1.95 Q-7.4 -4.15 -5.85 -5.9 -2.8 -9.45 0.05 -7.2 L-3.85 -5.8 Q-7.65 -3.8 -6.95 -1.0 L-8.35 -1.95" fill="#f1ede9" fill-rule="evenodd" stroke="none"/>
      <path d="M-4.9 -1.7 Q-4.8 -1.45 -5.75 -1.2 -6.25 -2.4 -6.8 -2.85 L-8.2 -4.0 -7.35 -4.5 -5.85 -3.25 Q-5.2 -2.6 -4.9 -1.7" fill="#9b8a81" fill-rule="evenodd" stroke="none"/>
      <path d="M-3.45 -3.3 Q-3.4 -3.05 -4.3 -2.8 -4.5 -4.8 -5.9 -6.2 -6.0 -6.35 -5.0 -6.7 -3.65 -5.3 -3.45 -3.3" fill="#9b8a81" fill-rule="evenodd" stroke="none"/>
      <path d="M-2.6 -7.6 L-1.75 -8.1 Q-0.4 -6.2 -0.95 -4.3 -1.0 -4.05 -1.8 -3.9 -1.3 -5.65 -2.6 -7.6" fill="#9b8a81" fill-rule="evenodd" stroke="none"/>
      <path d="M0.9 -4.9 Q1.8 -5.5 1.75 -5.3 L1.95 -4.05 Q1.85 -3.6 1.15 -3.2 L0.65 -3.1 1.0 -3.5 0.95 -4.25 0.9 -4.9" fill="#9b8a81" fill-rule="evenodd" stroke="none"/>
      <path d="M2.55 -2.5 L3.4 -3.0 Q3.45 -2.1 2.9 -1.6 2.65 -1.35 2.3 -1.25 1.9 -1.15 2.2 -1.45 2.6 -1.85 2.55 -2.5" fill="#9b8a81" fill-rule="evenodd" stroke="none"/>
      <path d="M3.95 -0.3 L4.2 -0.2 3.7 0.95 Q3.2 1.4 2.65 1.45 2.4 1.5 2.7 1.2 3.0 0.95 3.25 0.95 L3.05 0.85 3.4 0.1 3.95 -0.3" fill="#9b8a81" fill-rule="evenodd" stroke="none"/>
      <path d="M4.05 2.15 Q4.85 1.5 4.95 1.65 5.6 2.85 5.25 3.75 L4.8 4.15 4.4 4.15 Q4.7 3.3 4.05 2.15" fill="#9b8a81" fill-rule="evenodd" stroke="none"/>
    </g>
  </defs>
</svg>
